assets/images/button-down.svg

<svg width="16" height="17" fill="none" xmlns="http://www.w3.org/2000/svg"><defs><linearGradient id="a" x1="0%" y1="0%" x2="100%" y2="0%"><stop offset="0%" style="stop-color:#333;stop-opacity:1"/><stop offset="100%" style="stop-color:#aaa;stop-opacity:1"/></linearGradient></defs><path d="M11 6H4v1h1v1h1v1h1v1h1V9h1V8h1V7h1V6Z" fill="url(#a)"/></svg>

<svg width="16" height="17" viewBox="0 0 16 17" fill="none"
    xmlns="http://www.w3.org/2000/svg">
    <defs>
        <linearGradient id="grad" x1="0%" y1="0%" x2="100%" y2="0%">
            <stop offset="0%" style="stop-color:#333;stop-opacity:1" />
            <stop offset="100%" style="stop-color:#aaa;stop-opacity:1" />
        </linearGradient>
    </defs>
    <path d="M11 6H4V7H5V8H6V9H7V10H8V9H9V8H10V7H11V6Z" fill="url(#grad)"/>
</svg>
